X:15899
T:St.Pierre Hornpipe
M:4/4
L:1/8
K:Bb
FA|BFDF B2 AB|cAFA c2 Bc|dcBA GABc|A2 F2 F2 GA|!
BFDF B2 AB|cAFA c2 Bc|dfdB cecA|B2 d2 B2:|!
|:f=e|fedc BGAB|c=Bcd e2 ed|edcB AFGA|BABc dfec|!
BFDF B2 AB|cAFA c2 Bc|dfdB cecA|B2 d2 B2:|!
